!!!!SEGMENT: pl-kk--kk-i-132--002_anonim--beatus-vir-qui-timet-dominum.krn
!!!id: 16xx:739
!!!COM: Anonim
!!!COM-rism: pe30004985
!!!CDT:
!!!CNT:
!!!OTL: Beatus vir qui timet Dominum
!!!PDT:
!!!SMS-siglum: PL-Kk
!!!SMS-shelfmark: Kk.I.132
!!!NIFC-rismID: 1001144430
!!!URL-scan: http://repozytorium.nifc.pl/skany/pl-kk-nut--i-132
!!!ONB-nifc: UWAGA: N:2, skan 0002
!!!SMS-variant:
!!!SMS-altvar:
**kern	**text
*I"[Basso]	*
*I'B	*
*clefF4	*
*k[]	*
*M2/2	*
*met(c|)	*
=1	=1
!LO:TX:t=P:problem:2\right:global	!
2C/	Be-
4G\	a-
4GG/	-tus
=2	=2
4C/	vir
4G\	qui
4c\	ti-
4G\	-met
=3	=3
4.C/	Do-
8C/	-mi-
2C/	-num
=4	=4
2r	.
4B\	in
4c\	man-
!!LO:LB:g=original
=5	=5
*2\right	*
2G\	-da-
2E\	-tis
=6	=6
2G\	e-
2c\	-jus
=7	=7
4G\	cu-
4G\	-pit
2G\	ni-
=8	=8
2C/	-mis.
2r	.
=9	=9
4A\	Po-
4B\	.
4c\	-tens
4B\	in
!!LO:LB:g=original
=10	=10
4A\	ter-
4B\	.
4c\	.
4B\	-ra
=11	=11
4A\	e-
4G#X\	-rit
4A\	se-
8B\L	-men
8A\J	.
=12	=12
2A\	e-
2G#X\	-jus
=13	=13
2r	.
4E\	ge-
4E\	-ne-
!!LO:LB:g=original
=14	=14
4E\	-ra-
4E\	-ti-
4E\	-o
4E\	rec-
=15	=15
4C/	-to-
4BB/	.
2AA/	-rum
=16	=16
2D/	be-
4C/	-ne-
4D/	-di-
=17	=17
1E\	-ce-
=18	=18
2AA/	-tur
2r	.
!!LO:LB:g=original
=19	=19
4c\	Glo-
4G\	.
4E\	-ri-
4C/	-a
=20	=20
2G\	et
2G\	di-
=21	=21
4E\	-ci-
4D\	-ti-
4C/	-ae
4C/	in
=22	=22
4C/	do-
8D/L	-mo
8C/J	.
4A\	e-
4F#X\	.
!!LO:LB:g=original
=23	=23
2G\	-us
4G\	et
4G\	jus-
=24	=24
2G\	-ti-
4G\	-ti-
4G\	-a
=25	=25
2C/	e-
2C/	-jus
=26	=26
2C/	ma-
4BB/	-net
4C/	in
!!LO:LB:g=original
=27	=27
2G\	Sae-
4E\	-cu-
4C/	-lum
=28	=28
2.G\	Sae-
4G\	-cu-
=29	=29
1C/	-li
==	==
*-	*-
!!!EED: Leszek Kubiak
!!!EST: 2021-02-16
!!!ENC: Krzysztof Stępień
!!!END: 2021-02-11
